static/discord.svg

<svg width="64" height="48" viewBox="0 0 64 48" fill="none" xmlns="http://www.w3.org/2000/svg">
<path d="M40.575 0C39.9562 1.09866 39.4006 2.2352 38.8954 3.397C34.0967 2.67719 29.2096 2.67719 24.3982 3.397C23.9057 2.2352 23.3374 1.09866 22.7186 0C18.2104 0.770324 13.8157 2.12155 9.64839 4.02841C1.38951 16.2652 -0.845688 28.1863 0.265599 39.9432C5.10222 43.517 10.5197 46.2447 16.2909 47.9874C17.5916 46.2447 18.7407 44.3883 19.7257 42.4562C17.8568 41.7616 16.0509 40.8903 14.3208 39.88C14.7755 39.5517 15.2175 39.2107 15.6468 38.8824C25.7873 43.6559 37.5316 43.6559 47.6847 38.8824C48.1141 39.236 48.5561 39.577 49.0107 39.88C47.2806 40.9029 45.4748 41.7616 43.5931 42.4688C44.5781 44.4009 45.7273 46.2573 47.028 48C52.7991 46.2573 58.2167 43.5422 63.0533 39.9684C64.3666 26.3299 60.8055 14.5099 53.6452 4.04104C49.4905 2.13418 45.0959 0.782952 40.5876 0.0252565L40.575 0ZM21.1401 32.7072C18.0209 32.7072 15.4321 29.8785 15.4321 26.3804C15.4321 22.8824 17.9199 20.041 21.1275 20.041C24.3351 20.041 26.886 22.895 26.8354 26.3804C26.7849 29.8658 24.3224 32.7072 21.1401 32.7072ZM42.1788 32.7072C39.047 32.7072 36.4834 29.8785 36.4834 26.3804C36.4834 22.8824 38.9712 20.041 42.1788 20.041C45.3864 20.041 47.9246 22.895 47.8741 26.3804C47.8236 29.8658 45.3611 32.7072 42.1788 32.7072Z" fill="white"/>
</svg>

<svg xmlns="http://www.w3.org/2000/svg" width="64" height="48" fill="none" viewBox="0 0 64 48"><path fill="#fff" d="M40.575 0a37 37 0 0 0-1.68 3.397 49 49 0 0 0-14.497 0A34 34 0 0 0 22.718 0a52.8 52.8 0 0 0-13.07 4.028C1.39 16.265-.846 28.186.266 39.943a52.5 52.5 0 0 0 16.025 8.044 38.5 38.5 0 0 0 3.435-5.53 35 35 0 0 1-5.405-2.577c.454-.328.896-.67 1.326-.998a37.63 37.63 0 0 0 32.038 0c.43.354.871.695 1.326.998a34.4 34.4 0 0 1-5.418 2.589A38.5 38.5 0 0 0 47.028 48a52.5 52.5 0 0 0 16.025-8.032c1.314-13.638-2.247-25.458-9.408-35.927A52 52 0 0 0 40.588.025zM21.14 32.707c-3.12 0-5.708-2.829-5.708-6.327s2.488-6.339 5.696-6.339 5.758 2.854 5.707 6.34c-.05 3.485-2.513 6.326-5.695 6.326m21.039 0c-3.132 0-5.696-2.829-5.696-6.327s2.488-6.339 5.696-6.339 5.746 2.854 5.695 6.34c-.05 3.485-2.513 6.326-5.695 6.326"/></svg>
